build/documents/ComponentTemplateOutline.svg

<svg xmlns="http://www.w3.org/2000/svg" fill="none" viewBox="0 0 24 24" focusable="false"><path d="M0 0H24V24H0z"/><path fill="#74767B" fill-rule="evenodd" d="M4 6C4 4.34315 5.34315 3 7 3L13.4803 3C14.2425 3 14.9761 3.2901 15.5321 3.81139L19.0518 7.11108C19.6568 7.67823 20 8.47047 20 9.2997L20 18C20 19.6569 18.6569 21 17 21L7 21C5.34315 21 4 19.6569 4 18L4 6ZM7 4.3L13.4803 4.3C13.676 4.3 13.8684 4.33375 14.0496 4.39813L14.0496 7.05252C14.0496 8.12948 14.9226 9.00253 15.9996 9.00252L18.6738 9.00251C18.6911 9.09993 18.7 9.19933 18.7 9.2997L18.7 18C18.7 18.9389 17.9389 19.7 17 19.7L7 19.7C6.06112 19.7 5.3 18.9389 5.3 18L5.3 6C5.3 5.06112 6.06112 4.3 7 4.3ZM17.7819 7.70252L15.3496 5.42216L15.3496 7.05252C15.3496 7.41151 15.6406 7.70252 15.9996 7.70252L17.7819 7.70252ZM12.6202 10.7381C12.9673 10.8298 13.1743 11.1855 13.0825 11.5326L12.2125 14.8238C12.1208 15.1709 11.7651 15.3778 11.418 15.2861C11.0709 15.1944 10.864 14.8386 10.9557 14.4916L11.8257 11.2004C11.9175 10.8533 12.2732 10.6463 12.6202 10.7381ZM14.1731 15.0497C13.889 14.8303 13.8365 14.4221 14.0558 14.138L14.9155 13.0246L14.0502 11.8699C13.8349 11.5826 13.8933 11.1752 14.1805 10.9599C14.4678 10.7447 14.8752 10.803 15.0905 11.0903L16.2523 12.6406C16.4275 12.8744 16.4252 13.1964 16.2466 13.4277L15.0848 14.9324C14.8654 15.2166 14.4573 15.2691 14.1731 15.0497ZM9.82696 10.9656C10.1111 11.185 10.1636 11.5932 9.94422 11.8773L9.08458 12.9908L9.94988 14.1454C10.1652 14.4327 10.1068 14.8401 9.81952 15.0554C9.53224 15.2707 9.12485 15.2123 8.90957 14.925L7.74776 13.3747C7.57256 13.1409 7.57488 12.8189 7.75342 12.5876L8.91523 11.0829C9.13461 10.7987 9.54281 10.7462 9.82696 10.9656Z"/></svg>

<svg xmlns="http://www.w3.org/2000/svg" fill="none" viewBox="0 0 24 24" focusable="false"><path fill="#74767B" fill-rule="evenodd" d="M4 6c0-1.66 1.34-3 3-3h6.48c.76 0 1.49.29 2.05.81l3.52 3.3c.6.56.95 1.36.95 2.18V18c0 1.65-1.35 3-3 3H7c-1.66 0-3-1.35-3-3zm3-1.7h6.48c.19 0 .38.03.56.09v2.66c0 1.07.88 1.95 1.95 1.95h2.68c.02.09.03.19.03.29V18c0 .93-.77 1.7-1.7 1.7H7c-.94 0-1.7-.77-1.7-1.7V6c0-.94.76-1.7 1.7-1.7m10.78 3.4-2.44-2.28v1.63c0 .36.3.65.65.65zm-5.16 3.03c.34.09.55.45.46.8l-.87 3.29a.651.651 0 0 1-1.26-.33l.87-3.29c.09-.35.45-.56.8-.47m1.55 4.31a.64.64 0 0 1-.12-.91l.86-1.11-.86-1.16a.645.645 0 0 1 .13-.91c.28-.21.69-.15.91.14l1.16 1.55c.17.23.17.55-.01.78l-1.16 1.51a.65.65 0 0 1-.91.11m-4.23-3.17c.22-.28.17-.69-.12-.91a.643.643 0 0 0-.91.12l-1.16 1.5a.66.66 0 0 0-.01.79l1.16 1.55c.22.29.63.35.91.13.29-.21.35-.62.13-.91l-.86-1.15z"/></svg>
